lib/assets/icons/svg/filled-media-pause.svg

<svg viewBox="0 0 24 24" xmlns="http://www.w3.org/2000/svg">
  <path  d="M 14 3 L 18 3 C 18.552 3 19 3.448 19 4 L 19 20 C 19 20.552 18.552 21 18 21 L 14 21 C 13.448 21 13 20.552 13 20 L 13 4 C 13 3.448 13.448 3 14 3 Z M 6 3 L 10 3 C 10.552 3 11 3.448 11 4 L 11 20 C 11 20.552 10.552 21 10 21 L 6 21 C 5.448 21 5 20.552 5 20 L 5 4 C 5 3.448 5.448 3 6 3 Z"/>
</svg>

<svg xmlns="http://www.w3.org/2000/svg" viewBox="0 0 24 24"><path d="M14 3h4a1 1 0 0 1 1 1v16a1 1 0 0 1-1 1h-4a1 1 0 0 1-1-1V4a1 1 0 0 1 1-1zM6 3h4a1 1 0 0 1 1 1v16a1 1 0 0 1-1 1H6a1 1 0 0 1-1-1V4a1 1 0 0 1 1-1z"/></svg>
